public/avatar/emote/60.svg

<svg xmlns:xlink="http://www.w3.org/1999/xlink" height="100.8" width="132.65" xmlns="http://www.w3.org/2000/svg"><use height="12.1" transform="translate(65.5 67.65)" width="24.45" xlink:href="#a"/><defs><g id="a"><path d="M-1.25-1.35h1.6l.6.05-.05.7.05-.7 5.45.7q2.5.5 5.1 1.4l.7.85-3.15.25-1.7-.15-2.5-.2L.9 1.4l-6.3.1-2.5.25h-.25l-.6.1-3.45-.1-.05-.15q0-.7 2.35-1.6l3.15-.75.05-.05 5.45-.55v.05l.05.6-.05-.6v-.05" fill-opacity=".153" fill-rule="evenodd" transform="translate(12.25 5.9)"/><path d="M4.3 4.05Q2.45 7.3-.1 4.1q-2.65 3.2-4.5-.05" fill="none" stroke="#333" stroke-linecap="round" stroke-linejoin="round" transform="translate(12.25 5.9)"/><path d="M-1.25-1.35v.05l.05.6m2.1.1.05-.7v-.1l.15-.9.25-.85.35-.8q.6-1.1 1.4-1.35l.55-.1q1.15 0 1.95 1.45.65 1.1.8 2.65v.7M-6.7-.8l.05-.5q.15-1.5.8-2.6.75-1.45 1.9-1.45l.65.15q.75.25 1.3 1.3.6 1.05.75 2.45v.1" fill="none" stroke="#666" stroke-linecap="round" stroke-linejoin="round" transform="translate(12.25 5.9)"/></g></defs></svg>

<?xml version="1.0" encoding="UTF-8" standalone="no"?>
<svg xmlns:xlink="http://www.w3.org/1999/xlink" height="100.8px" width="132.65px" xmlns="http://www.w3.org/2000/svg">
  <g transform="matrix(1.0, 0.0, 0.0, 1.0, 77.75, 73.55)">
    <use height="12.1" transform="matrix(1.0, 0.0, 0.0, 1.0, -12.25, -5.9)" width="24.45" xlink:href="#shape0"/>
  </g>
  <defs>
    <g id="shape0" transform="matrix(1.0, 0.0, 0.0, 1.0, 12.25, 5.9)">
      <path d="M-1.25 -1.35 L0.35 -1.35 0.95 -1.3 0.9 -0.6 0.95 -1.3 6.4 -0.6 Q8.9 -0.1 11.5 0.8 L12.2 1.65 9.05 1.9 7.35 1.75 4.85 1.55 0.9 1.4 -5.4 1.5 -7.9 1.75 -8.15 1.75 -8.75 1.85 -12.2 1.75 -12.25 1.6 Q-12.25 0.9 -9.9 0.0 L-6.75 -0.75 -6.7 -0.8 -1.25 -1.35 -1.25 -1.3 -1.2 -0.7 -1.25 -1.3 -1.25 -1.35" fill="#000000" fill-opacity="0.15294118" fill-rule="evenodd" stroke="none"/>
      <path d="M4.3 4.05 Q2.45 7.3 -0.1 4.1 -2.75 7.3 -4.6 4.05" fill="none" stroke="#333333" stroke-linecap="round" stroke-linejoin="round" stroke-width="1.0"/>
      <path d="M-1.25 -1.35 L-1.25 -1.3 -1.2 -0.7 M0.9 -0.6 L0.95 -1.3 0.95 -1.4 1.1 -2.3 1.35 -3.15 1.7 -3.95 Q2.3 -5.05 3.1 -5.3 L3.65 -5.4 Q4.8 -5.4 5.6 -3.95 6.25 -2.85 6.4 -1.3 L6.4 -0.6 M-6.7 -0.8 L-6.65 -1.3 Q-6.5 -2.8 -5.85 -3.9 -5.1 -5.35 -3.95 -5.35 L-3.3 -5.2 Q-2.55 -4.95 -2.0 -3.9 -1.4 -2.85 -1.25 -1.45 L-1.25 -1.35" fill="none" stroke="#666666" stroke-linecap="round" stroke-linejoin="round" stroke-width="1.0"/>
    </g>
  </defs>
</svg>
